src/assets/updog-hooray.svg

<svg fill="none" height="725" viewBox="0 0 799 725" width="799" xmlns="http://www.w3.org/2000/svg" xmlns:xlink="http://www.w3.org/1999/xlink"><clipPath id="a"><path d="m0 0h799v725h-799z"/></clipPath><g clip-path="url(#a)"><ellipse cx="490.488" cy="637.361" fill="#dbdfdf" rx="308.981" ry="65.6385"/><path d="m284.341 510.68-17.966-53.792s-21.758-43.052-31.206-141.75l-2.821-26.267s-67.608-245.1124 112.673-265.4541c118.488-13.3555 195.698 31.5247 234.723 63.8641 21.085 17.478 25.737 41.547 31.132 68.357 4.702 23.329-17.768 68.061-8.34 92.328 40.585 104.375 47.316 111.139 58.254 124.79 6.237 7.801 28.311 25.057 42.515 51.151 28.484 52.311 21.852 132.172 21.852 132.172l-284.886 50.903s-89.484 12.788-123.808-13.059l-2.599-28.735" fill="#e4b652"/><path d="m343.015 21s-76.477 12.3962-104.668 13.7653c-28.192 1.369-45.25-3.9081-52.113 40.773-6.862 44.6807 11.134 80.4507 20.169 84.1847 9.381 3.883 22.785 5.675 34.141-23.174 11.355-28.85 23.673-64.7943 50.31-81.9199 22.513-14.4623 43.225-22.8011 49.125-25.0414 1.382-.5227 2.666-1.2197 3.851-2.066 3.209-2.2901 7.899-6.5217-.815-6.5217z" fill="#544b43"/><path d="m514.941 53.7108s-5.505-15.5653 22.486-.5883c27.991 14.9769 50.868 26.179 77.366 33.214s41.105 11.055 43.601 34.9545c2.52 23.899-20.088 60.177-40.469 81.013-11.206 11.471-18.498 7.966-22.78 2.5-3.327-4.241-4.844-9.658-4.746-15.051.171-8.898-1.003-29.047-12.503-50.519-8.613-16.056-38.414-69.4923-62.955-85.5232z" fill="#544b43"/><path d="m299.977 169.525s45.673-30.586 97.671-22.195c51.999 8.391 72.028 56.177 72.028 56.177" stroke="#544b43" stroke-linecap="round" stroke-linejoin="round" stroke-miterlimit="10" stroke-width="3"/><path d="m391.268 166.802s-31.739-9.628-33.636 16.708c-.219 3.132 1.216 6.31 4.062 7.829 3.453 1.823 9.631 2.571 20.575-1.799 0 0 4.062-2.337 7.442 1.589 3.405 3.926 6.494 10.072 16.903 9.067 4.28-.421 7.15-2.734 9.047-5.328 3.867-5.282 3.746-12.549-.608-17.457-3.648-4.136-10.604-8.506-23.785-10.609z" fill="#544b43"/><path d="m232.737 289.953s159.07 54.601 369.555-44.822l15.708 38.369s-206.637 99.633-384.743 37.472z" fill="#16d2aa"/><path d="m390.214 417.198c18.896 0 34.214-16.327 34.214-36.467 0-20.141-15.318-36.468-34.214-36.468s-34.214 16.327-34.214 36.468c0 20.14 15.318 36.467 34.214 36.467z" fill="#fff"/><path d="m390.205 343.452c-21.091 0-38.21 17.087-38.21 38.193 0 21.082 17.095 38.194 38.21 38.194 21.091 0 38.21-17.087 38.21-38.194 0-21.106-17.119-38.193-38.21-38.193zm0 71.086c-18.18 0-32.931-14.745-32.931-32.917 0-18.173 14.727-32.917 32.931-32.917 18.18 0 32.931 14.72 32.931 32.917 0 18.196-14.751 32.917-32.931 32.917z" fill="#16d2aa"/><path d="m390.21 414.562c18.187 0 32.931-14.738 32.931-32.917 0-18.18-14.744-32.917-32.931-32.917s-32.931 14.737-32.931 32.917c0 18.179 14.744 32.917 32.931 32.917z" fill="#fff"/><path d="m373.706 389.573c1.06 1.307 2.466 1.972 4.242 1.972s3.182-.665 4.218-1.972 1.554-3.107 1.554-5.351v-11.835l6.315-3.797v15.83c0 4.093-1.134 7.249-3.404 9.443-2.269 2.195-5.155 3.304-8.707 3.304-3.528 0-6.438-1.109-8.733-3.328-2.269-2.22-3.428-5.351-3.428-9.419v-12.033l6.315-3.797v15.608c.049 2.293.567 4.068 1.628 5.375z" fill="#16d2aa"/><path d="m411.637 371.13c1.973 1.676 2.985 4.265 2.985 7.766 0 3.502-1.012 6.041-3.059 7.669-2.048 1.627-5.156 2.416-9.324 2.416h-3.775v4.093l-6.314 3.797v-28.281h9.99c4.341.025 7.499.863 9.497 2.54zm-4.638 11.12c.765-.839 1.135-2.096 1.135-3.723 0-1.628-.493-2.787-1.48-3.477s-2.516-1.036-4.588-1.036h-3.602v9.518h4.243c2.097 0 3.528-.419 4.292-1.282z" fill="#16d2aa"/><path d="m390.37 339.107s2.616 6.352.116 9.785c-2.516 3.456 1.308 1.144 1.308 1.144s2.334-6.305 0-10.929c0 0-.497-2.522-1.424 0z" fill="#b5dfd5"/><path d="m266.612 327.23-79.019-37.363c-11.776-7.578-31.534-2.903-41.988 10.719-11.671 15.215 2.287 80.47 110.846 108.61" fill="#e4b652"/><path d="m263.228 325.543-18.793-9.715c-6.267-3.246-12.637-6.365-18.964-9.531l-19.025-9.451-19.162-9.258.126.084c-5.536-3.64-13.342-4.754-21.253-2.986-7.892 1.66-15.843 6.472-21.102 12.873-2.761 3.217-4.348 7.07-5.035 10.566-.67 3.536-.655 6.947-.283 10.176.795 6.508 3.101 12.349 5.954 17.791 5.95 10.808 14.414 19.851 23.838 27.843 9.474 7.965 20.138 14.764 31.37 20.758-10.674-6.67-20.877-13.849-29.917-22.109-9.075-8.193-17.064-17.428-22.56-28.097-2.744-5.324-4.874-11.032-5.555-17.18-.666-6.032-.028-12.946 4.67-18.374 4.658-5.604 11.619-9.67 18.616-11.269 7.014-1.633 13.97-.729 18.97 2.494l.076.035.075.036 19.325 9.053 19.463 8.86c6.508 2.927 12.955 5.933 19.523 8.78z" fill="#c58f2c"/><path d="m538.468 321.694-78.139-37.067c-11.645-7.518-31.183-2.881-41.521 10.632-11.542 15.092 4.571 67.829 81.178 99.093" fill="#e4b652"/><path d="m536.614 320.615-18.793-9.715c-6.267-3.246-12.637-6.365-18.964-9.531l-19.025-9.451-19.162-9.258.126.084c-5.536-3.64-13.342-4.754-21.253-2.986-7.893 1.66-15.843 6.472-21.102 12.873-2.761 3.217-4.348 7.07-5.035 10.565-.67 3.537-.655 6.947-.283 10.177.795 6.508 3.101 12.349 5.953 17.791 5.951 10.808 14.415 19.851 23.839 27.842 9.474 7.966 20.138 14.765 31.369 20.759-10.673-6.67-20.876-13.849-29.916-22.109-9.075-8.193-17.064-17.428-22.56-28.097-2.744-5.324-4.874-11.033-5.555-17.18-.666-6.032-.028-12.946 4.67-18.374 4.658-5.604 11.619-9.67 18.615-11.269 7.014-1.634 13.97-.729 18.971 2.494l.075.035.076.036 19.325 9.053 19.463 8.86c6.507 2.926 12.955 5.933 19.523 8.78z" fill="#c58f2c"/><path d="m725.826 555.714s-9.769 33.485-38.389 61.381c-7.92 7.721-17.285 15.013-28.286 21.049-12.056 6.615-26.078 11.721-42.32 14.227-84.628 13.056-106.575 0-106.575 0s-15.504-9.136 12.27-26.136c27.773-17 45.227-24.813 45.227-24.813s-118.845 7.189-158.913 5.866" fill="#e4b652"/><path d="m472.878 605.594s-72.178 10.304-156.435 26.486c-43.342 8.313-64.233 7.501-73.837 5.706-6.485-1.23-11.881-6.197-12.896-12.665-.94-6.099 1.585-14.289 15.495-22.65 27.847-16.723 29.258-12.838 29.258-12.838-34.183-36.667 10.198-78.745 10.198-78.745s48.415 73.212 118.316 83.984" fill="#e4b652"/><path d="m283.967 510.888c19.896 41.076 87.633 68.94 131.277 86.45z" fill="#e4b652"/><path d="m283.967 510.888c19.896 41.076 87.633 68.94 131.277 86.45" stroke="#c58f2c" stroke-miterlimit="10" stroke-width="1.302"/><path d="m566.926 601.913c-10.731-5.646-19.981-14.597-25.334-25.791-2.639-5.597-4.02-11.811-4.168-18-.148-6.213.937-12.402 2.836-18.295 1.974-5.893 4.884-11.318 8.017-16.619 3.355-5.129 6.882-10.159 11.002-14.696 8.041-9.221 17.094-17.407 26.69-24.854l-6.636 6.214c-2.244 2.022-4.292 4.29-6.463 6.411-2.195 2.095-4.193 4.364-6.24 6.583-2.097 2.17-3.972 4.537-5.896 6.879-3.823 4.66-7.326 9.567-10.533 14.647-2.985 5.202-5.772 10.528-7.597 16.199-1.875 5.647-3.01 11.54-2.911 17.457.049 5.918 1.381 11.786 3.651 17.285 2.343 5.474 5.747 10.479 9.793 14.942 3.971 4.463 8.633 8.408 13.789 11.638z" fill="#c48f2c"/><g fill="#c58f2c"><path d="m166.175 307.575c3.574 3.579 7.976 4.977 9.831 3.124 1.856-1.853.462-6.256-3.112-9.835-3.574-3.578-7.975-4.976-9.83-3.123-1.856 1.853-.463 6.256 3.111 9.834z"/><path d="m150.933 309.378c2.78 2.783 6.407 3.668 8.1 1.976 1.694-1.692.814-5.319-1.966-8.102s-6.407-3.668-8.1-1.977c-1.694 1.692-.813 5.32 1.966 8.103z"/><path d="m150.585 322.187c3.045 3.048 6.746 4.287 8.268 2.768 1.521-1.52.287-5.223-2.758-8.272-3.044-3.048-6.746-4.287-8.267-2.767-1.522 1.52-.288 5.223 2.757 8.271z"/><path d="m166.495 329.958c5.343 5.35 12.361 7.004 15.674 3.695 3.313-3.31 1.668-10.329-3.676-15.679-5.343-5.35-12.361-7.004-15.674-3.695s-1.668 10.329 3.676 15.679z"/><path d="m440.231 301.817c3.069 4.02 7.247 5.989 9.331 4.398 2.085-1.592 1.286-6.141-1.783-10.16-3.069-4.02-7.246-5.989-9.331-4.398-2.084 1.592-1.286 6.14 1.783 10.16z"/><path d="m425.843 300.854c2.387 3.126 5.649 4.647 7.287 3.397 1.638-1.251 1.03-4.799-1.357-7.925-2.387-3.127-5.649-4.648-7.287-3.398-1.638 1.251-1.031 4.799 1.357 7.926z"/><path d="m423.897 311.717c2.157 2.825 4.871 4.378 6.062 3.468 1.191-.909.408-3.936-1.749-6.761-2.156-2.825-4.87-4.377-6.061-3.468s-.408 3.936 1.748 6.761z"/><path d="m437.449 323.867c4.512 5.909 11.186 8.396 14.908 5.554s3.083-9.935-1.429-15.844c-4.511-5.909-11.185-8.395-14.907-5.554-3.722 2.842-3.083 9.936 1.428 15.844z"/></g><path d="m470.252 153.594s-1.546-13.299-11.604-14.625c-10.082-1.298-12.848 8.015-12.848 8.015" stroke="#1e1c1a" stroke-linecap="round" stroke-linejoin="round" stroke-miterlimit="10" stroke-width="3"/><path d="m335.606 136.557s-3.783-11.045-13.814-9.668c-10.052 1.375-11.125 10.03-11.125 10.03" stroke="#1e1c1a" stroke-linecap="round" stroke-linejoin="round" stroke-miterlimit="10" stroke-width="3"/><path d="m387.077 190.7-3.852 20.262s2.669 10.654 18.933 14.643c1.137.268 2.297.365 3.457.292 3.759-.219 11.996-1.314 16.033-6.349" stroke="#544b43" stroke-linecap="round" stroke-linejoin="round" stroke-miterlimit="10" stroke-width="3"/><path d="m383.225 209.911s-8.319 12.129-21.67 9.128-13.55-9.128-13.55-9.128" stroke="#544b43" stroke-linecap="round" stroke-linejoin="round" stroke-miterlimit="10" stroke-width="3"/><rect fill="#c4c4c4" height="176.103" rx="1.5" width="6.40376" x="162.296" y="165.084"/><path d="m162.296 259.84v-87.03c0-.663-.634-1.142-1.272-.962l-158.51842 44.833c-.97829.277-.96752 1.668.01493 1.929l158.51849 42.196c.634.169 1.257-.309 1.257-.966z" fill="#1855d1"/><path d="m698.328 491.203s14.643-13.566 25.05-37.769c10.408-24.203 29.493-9.386 32.101 2.728 2.557 11.889 14.359 41.674-54.646 73.936l-10.227-21.199z" fill="#e4b652"/></g></svg>

<svg width="799" height="725" viewBox="0 0 799 725" fill="none" xmlns="http://www.w3.org/2000/svg">
<g clip-path="url(#clip0_505_317)">
<ellipse cx="490.488" cy="637.361" rx="308.981" ry="65.6385" fill="#DBDFDF"/>
<path d="M284.341 510.68L266.375 456.888C266.375 456.888 244.617 413.836 235.169 315.138L232.348 288.871C232.348 288.871 164.74 43.7586 345.021 23.4169C463.509 10.0614 540.719 54.9416 579.744 87.281C600.829 104.759 605.481 128.828 610.876 155.638C615.578 178.967 593.108 223.699 602.536 247.966C643.121 352.341 649.852 359.105 660.79 372.756C667.027 380.557 689.101 397.813 703.305 423.907C731.789 476.218 725.157 556.079 725.157 556.079L440.271 606.982C440.271 606.982 350.787 619.77 316.463 593.923L313.864 565.188" fill="#E4B652"/>
<path d="M343.015 21C343.015 21 266.538 33.3962 238.347 34.7653C210.155 36.1343 193.097 30.8572 186.234 75.5383C179.372 120.219 197.368 155.989 206.403 159.723C215.784 163.606 229.188 165.398 240.544 136.549C251.899 107.699 264.217 71.7547 290.854 54.6291C313.367 40.1668 334.079 31.828 339.979 29.5877C341.361 29.065 342.645 28.368 343.83 27.5217C347.039 25.2316 351.729 21 343.015 21Z" fill="#544B43"/>
<path d="M514.941 53.7108C514.941 53.7108 509.436 38.1455 537.427 53.1225C565.418 68.0994 588.295 79.3015 614.793 86.3365C641.291 93.3715 655.898 97.3915 658.394 121.291C660.914 145.19 638.306 181.468 617.925 202.304C606.719 213.775 599.427 210.27 595.145 204.804C591.818 200.563 590.301 195.146 590.399 189.753C590.57 180.855 589.396 160.706 577.896 139.234C569.283 123.178 539.482 69.7417 514.941 53.7108Z" fill="#544B43"/>
<path d="M299.977 169.525C299.977 169.525 345.65 138.939 397.648 147.33C449.647 155.721 469.676 203.507 469.676 203.507" stroke="#544B43" stroke-width="3" stroke-miterlimit="10" stroke-linecap="round" stroke-linejoin="round"/>
<path d="M391.268 166.802C391.268 166.802 359.529 157.174 357.632 183.51C357.413 186.642 358.848 189.82 361.694 191.339C365.147 193.162 371.325 193.91 382.269 189.54C382.269 189.54 386.331 187.203 389.711 191.129C393.116 195.055 396.205 201.201 406.614 200.196C410.894 199.775 413.764 197.462 415.661 194.868C419.528 189.586 419.407 182.319 415.053 177.411C411.405 173.275 404.449 168.905 391.268 166.802Z" fill="#544B43"/>
<path d="M232.737 289.953C232.737 289.953 391.807 344.554 602.292 245.131L618 283.5C618 283.5 411.363 383.133 233.257 320.972L232.737 289.953Z" fill="#16D2AA"/>
<path d="M390.214 417.198C409.11 417.198 424.428 400.871 424.428 380.731C424.428 360.59 409.11 344.263 390.214 344.263C371.318 344.263 356 360.59 356 380.731C356 400.871 371.318 417.198 390.214 417.198Z" fill="white"/>
<path d="M390.205 343.452C369.114 343.452 351.995 360.539 351.995 381.645C351.995 402.727 369.09 419.839 390.205 419.839C411.296 419.839 428.415 402.752 428.415 381.645C428.415 360.539 411.296 343.452 390.205 343.452ZM390.205 414.538C372.025 414.538 357.274 399.793 357.274 381.621C357.274 363.448 372.001 348.704 390.205 348.704C408.385 348.704 423.136 363.424 423.136 381.621C423.136 399.817 408.385 414.538 390.205 414.538Z" fill="#16D2AA"/>
<path d="M390.21 414.562C408.397 414.562 423.141 399.824 423.141 381.645C423.141 363.465 408.397 348.728 390.21 348.728C372.023 348.728 357.279 363.465 357.279 381.645C357.279 399.824 372.023 414.562 390.21 414.562Z" fill="white"/>
<path d="M373.706 389.573C374.766 390.88 376.172 391.545 377.948 391.545C379.724 391.545 381.13 390.88 382.166 389.573C383.202 388.266 383.72 386.466 383.72 384.222V372.387L390.035 368.59V384.42C390.035 388.513 388.901 391.669 386.631 393.863C384.362 396.058 381.476 397.167 377.924 397.167C374.396 397.167 371.486 396.058 369.191 393.839C366.922 391.619 365.763 388.488 365.763 384.42V372.387L372.078 368.59V384.198C372.127 386.491 372.645 388.266 373.706 389.573Z" fill="#16D2AA"/>
<path d="M411.637 371.13C413.61 372.806 414.622 375.395 414.622 378.896C414.622 382.398 413.61 384.937 411.563 386.565C409.515 388.192 406.407 388.981 402.239 388.981H398.464V393.074L392.15 396.871V368.59H402.14C406.481 368.615 409.639 369.453 411.637 371.13ZM406.999 382.25C407.764 381.411 408.134 380.154 408.134 378.527C408.134 376.899 407.641 375.74 406.654 375.05C405.667 374.36 404.138 374.014 402.066 374.014H398.464V383.532H402.707C404.804 383.532 406.235 383.113 406.999 382.25Z" fill="#16D2AA"/>
<path d="M390.37 339.107C390.37 339.107 392.986 345.459 390.486 348.892C387.97 352.348 391.794 350.036 391.794 350.036C391.794 350.036 394.128 343.731 391.794 339.107C391.794 339.107 391.297 336.585 390.37 339.107Z" fill="#B5DFD5"/>
<path d="M266.612 327.23L187.593 289.867C175.817 282.289 156.059 286.964 145.605 300.586C133.934 315.801 147.892 381.056 256.451 409.196" fill="#E4B652"/>
<path d="M263.228 325.543L244.435 315.828C238.168 312.582 231.798 309.463 225.471 306.297L206.446 296.846L187.284 287.588L187.41 287.672C181.874 284.032 174.068 282.918 166.157 284.686C158.265 286.346 150.314 291.158 145.055 297.559C142.294 300.776 140.707 304.629 140.02 308.125C139.35 311.661 139.365 315.072 139.737 318.301C140.532 324.809 142.838 330.65 145.691 336.092C151.641 346.9 160.105 355.943 169.529 363.935C179.003 371.9 189.667 378.699 200.899 384.693C190.225 378.023 180.022 370.844 170.982 362.584C161.907 354.391 153.918 345.156 148.422 334.487C145.678 329.163 143.548 323.455 142.867 317.307C142.201 311.275 142.839 304.361 147.537 298.933C152.195 293.329 159.156 289.263 166.153 287.664C173.167 286.031 180.123 286.935 185.123 290.158L185.199 290.193L185.274 290.229L204.599 299.282L224.062 308.142C230.57 311.069 237.017 314.075 243.585 316.922L263.228 325.543Z" fill="#C58F2C"/>
<path d="M538.468 321.694L460.329 284.627C448.684 277.109 429.146 281.746 418.808 295.259C407.266 310.351 423.379 363.088 499.986 394.352" fill="#E4B652"/>
<path d="M536.614 320.615L517.821 310.9C511.554 307.654 505.184 304.535 498.857 301.369L479.832 291.918L460.67 282.66L460.796 282.744C455.26 279.104 447.454 277.99 439.543 279.758C431.65 281.418 423.7 286.23 418.441 292.631C415.68 295.848 414.093 299.701 413.406 303.196C412.736 306.733 412.751 310.143 413.123 313.373C413.918 319.881 416.224 325.722 419.076 331.164C425.027 341.972 433.491 351.015 442.915 359.006C452.389 366.972 463.053 373.771 474.284 379.765C463.611 373.095 453.408 365.916 444.368 357.656C435.293 349.463 427.304 340.228 421.808 329.559C419.064 324.235 416.934 318.526 416.253 312.379C415.587 306.347 416.225 299.433 420.923 294.005C425.581 288.401 432.542 284.335 439.538 282.736C446.552 281.102 453.508 282.007 458.509 285.23L458.584 285.265L458.66 285.301L477.985 294.354L497.448 303.214C503.955 306.14 510.403 309.147 516.971 311.994L536.614 320.615Z" fill="#C58F2C"/>
<path d="M725.826 555.714C725.826 555.714 716.057 589.199 687.437 617.095C679.517 624.816 670.152 632.108 659.151 638.144C647.095 644.759 633.073 649.865 616.831 652.371C532.203 665.427 510.256 652.371 510.256 652.371C510.256 652.371 494.752 643.235 522.526 626.235C550.299 609.235 567.753 601.422 567.753 601.422C567.753 601.422 448.908 608.611 408.84 607.288" fill="#E4B652"/>
<path d="M472.878 605.594C472.878 605.594 400.7 615.898 316.443 632.08C273.101 640.393 252.21 639.581 242.606 637.786C236.121 636.556 230.725 631.589 229.71 625.121C228.77 619.022 231.295 610.832 245.205 602.471C273.052 585.748 274.463 589.633 274.463 589.633C240.28 552.966 284.661 510.888 284.661 510.888C284.661 510.888 333.076 584.1 402.977 594.872" fill="#E4B652"/>
<path d="M283.967 510.888C303.863 551.964 371.6 579.828 415.244 597.338L283.967 510.888Z" fill="#E4B652"/>
<path d="M283.967 510.888C303.863 551.964 371.6 579.828 415.244 597.338" stroke="#C58F2C" stroke-width="1.302" stroke-miterlimit="10"/>
<path d="M566.926 601.913C556.195 596.267 546.945 587.316 541.592 576.122C538.953 570.525 537.572 564.311 537.424 558.122C537.276 551.909 538.361 545.72 540.26 539.827C542.234 533.934 545.144 528.509 548.277 523.208C551.632 518.079 555.159 513.049 559.279 508.512C567.32 499.291 576.373 491.105 585.969 483.658L579.333 489.872C577.089 491.894 575.041 494.162 572.87 496.283C570.675 498.378 568.677 500.647 566.63 502.866C564.533 505.036 562.658 507.403 560.734 509.745C556.911 514.405 553.408 519.312 550.201 524.392C547.216 529.594 544.429 534.92 542.604 540.591C540.729 546.238 539.594 552.131 539.693 558.048C539.742 563.966 541.074 569.834 543.344 575.333C545.687 580.807 549.091 585.812 553.137 590.275C557.108 594.738 561.77 598.683 566.926 601.913Z" fill="#C48F2C"/>
<path d="M166.175 307.575C169.749 311.154 174.151 312.552 176.006 310.699C177.862 308.846 176.468 304.443 172.894 300.864C169.32 297.286 164.919 295.888 163.064 297.741C161.208 299.594 162.601 303.997 166.175 307.575Z" fill="#C58F2C"/>
<path d="M150.933 309.378C153.713 312.161 157.34 313.046 159.033 311.354C160.727 309.662 159.847 306.035 157.067 303.252C154.287 300.469 150.66 299.584 148.967 301.275C147.273 302.967 148.154 306.595 150.933 309.378Z" fill="#C58F2C"/>
<path d="M150.585 322.187C153.63 325.235 157.331 326.474 158.853 324.955C160.374 323.435 159.14 319.732 156.095 316.683C153.051 313.635 149.349 312.396 147.828 313.916C146.306 315.436 147.54 319.139 150.585 322.187Z" fill="#C58F2C"/>
<path d="M166.495 329.958C171.838 335.308 178.856 336.962 182.169 333.653C185.482 330.343 183.837 323.324 178.493 317.974C173.15 312.624 166.132 310.97 162.819 314.279C159.506 317.588 161.151 324.608 166.495 329.958Z" fill="#C58F2C"/>
<path d="M440.231 301.817C443.3 305.837 447.478 307.806 449.562 306.215C451.647 304.623 450.848 300.074 447.779 296.055C444.71 292.035 440.533 290.066 438.448 291.657C436.364 293.249 437.162 297.797 440.231 301.817Z" fill="#C58F2C"/>
<path d="M425.843 300.854C428.23 303.98 431.492 305.501 433.13 304.251C434.768 303 434.16 299.452 431.773 296.326C429.386 293.199 426.124 291.678 424.486 292.928C422.848 294.179 423.455 297.727 425.843 300.854Z" fill="#C58F2C"/>
<path d="M423.897 311.717C426.054 314.542 428.768 316.095 429.959 315.185C431.15 314.276 430.367 311.249 428.21 308.424C426.054 305.599 423.34 304.047 422.149 304.956C420.958 305.865 421.741 308.892 423.897 311.717Z" fill="#C58F2C"/>
<path d="M437.449 323.867C441.961 329.776 448.635 332.263 452.357 329.421C456.079 326.579 455.44 319.486 450.928 313.577C446.417 307.668 439.743 305.182 436.021 308.023C432.299 310.865 432.938 317.959 437.449 323.867Z" fill="#C58F2C"/>
<path d="M470.252 153.594C470.252 153.594 468.706 140.295 458.648 138.969C448.566 137.671 445.8 146.984 445.8 146.984" stroke="#1E1C1A" stroke-width="3" stroke-miterlimit="10" stroke-linecap="round" stroke-linejoin="round"/>
<path d="M335.606 136.557C335.606 136.557 331.823 125.512 321.792 126.889C311.74 128.264 310.667 136.919 310.667 136.919" stroke="#1E1C1A" stroke-width="3" stroke-miterlimit="10" stroke-linecap="round" stroke-linejoin="round"/>
<path d="M387.077 190.7L383.225 210.962C383.225 210.962 385.894 221.616 402.158 225.605C403.295 225.873 404.455 225.97 405.615 225.897C409.374 225.678 417.611 224.583 421.648 219.548" stroke="#544B43" stroke-width="3" stroke-miterlimit="10" stroke-linecap="round" stroke-linejoin="round"/>
<path d="M383.225 209.911C383.225 209.911 374.906 222.04 361.555 219.039C348.204 216.038 348.005 209.911 348.005 209.911" stroke="#544B43" stroke-width="3" stroke-miterlimit="10" stroke-linecap="round" stroke-linejoin="round"/>
<rect x="162.296" y="165.084" width="6.40376" height="176.103" rx="1.5" fill="#C4C4C4"/>
<path d="M162.296 259.84V172.81C162.296 172.147 161.662 171.668 161.024 171.848L2.50558 216.681C1.52729 216.958 1.53806 218.349 2.52051 218.61L161.039 260.806C161.673 260.975 162.296 260.497 162.296 259.84Z" fill="#1855D1"/>
<path d="M698.328 491.203C698.328 491.203 712.971 477.637 723.378 453.434C733.786 429.231 752.871 444.048 755.479 456.162C758.036 468.051 769.838 497.836 700.833 530.098L690.606 508.899L698.328 491.203Z" fill="#E4B652"/>
</g>
<defs>
<clipPath id="clip0_505_317">
<rect width="799" height="725" fill="white"/>
</clipPath>
</defs>
</svg>
